assets/Coral/Flat/coral_flat.svg

<svg width="32" height="32" viewBox="0 0 32 32" fill="none" xmlns="http://www.w3.org/2000/svg">
<path d="M27.4793 9.13549C26.7674 9.13549 26.1901 9.71275 26.1901 10.4247V13.3462C26.1901 13.5451 26.1003 13.7311 25.9464 13.8529C25.5199 14.1929 24.8913 13.8914 24.8913 13.3462V3.2892C24.8913 2.57725 24.3141 2 23.6021 2C22.8902 2 22.3129 2.57725 22.3129 3.2892V9.27019C22.3129 9.56202 21.973 9.72558 21.7453 9.54278L21.4535 9.30226C20.8987 8.85649 20.0873 8.94628 19.6415 9.5043C19.1958 10.0591 19.2856 10.8705 19.8436 11.3162L21.8832 12.955C22.1558 13.1731 22.3129 13.5002 22.3129 13.8497V18.657C22.3129 19.1893 22.0692 19.6928 21.6555 20.0263L19.106 22.066C18.5929 22.4765 18.2946 23.0986 18.2946 23.756V29.923H20.873V24.4199C20.873 24.1248 21.0077 23.849 21.2354 23.663L24.2339 21.2642C24.6508 20.9307 24.8913 20.4272 24.8913 19.8949V18.5479C24.8913 18.1984 25.0485 17.8713 25.3211 17.6532L28.2233 15.3313C28.5665 15.0556 28.7685 14.6386 28.7685 14.1993V10.4247C28.7685 9.71275 28.1913 9.13549 27.4793 9.13549ZM19.6351 13.449C18.936 13.449 18.3716 14.0134 18.3716 14.7125V17.0504C18.3716 17.323 18.2305 17.5795 17.9996 17.7239C17.4672 18.0606 16.7713 17.679 16.7713 17.0504V16.7233C16.7713 16.0242 16.2069 15.4597 15.5077 15.4597C14.8086 15.4597 14.2442 16.0242 14.2442 16.7233V29.7051H16.7713V23.4611C16.7713 22.2393 17.3966 21.1008 18.4293 20.4466L19.68 19.6512C20.4401 19.1702 20.8986 18.3332 20.8986 17.4352V14.7125C20.8986 14.0134 20.3342 13.449 19.6351 13.449ZM14.0261 10.0786V9.33455C14.0261 8.60015 14.6226 8.00687 15.357 8.00687C16.0914 8.00687 16.6879 8.60336 16.6879 9.33776V10.7745C16.6879 12.0444 16.0433 13.231 14.9753 13.9205L13.7631 14.703C13.2789 15.0141 12.987 15.5496 12.987 16.1269V30.0034V30.0131H10.3253V30.0034V23.2367C10.3253 22.9994 10.2162 22.7781 10.0302 22.6338L8.05793 21.1105C7.47747 20.6615 7.37164 19.8245 7.82061 19.2441C8.26959 18.6636 9.10661 18.5578 9.68707 19.0068L9.87307 19.1511C10.0559 19.2954 10.3253 19.1639 10.3253 18.9298V16.1205C10.3253 15.5464 10.0334 15.0077 9.54917 14.6966L7.88155 13.6191C7.09905 13.1124 6.62442 12.2401 6.62442 11.3068C6.62442 10.9284 6.31655 10.6205 5.93813 10.6205H4.11657C3.27314 10.6205 2.59326 9.93746 2.59326 9.09723V6.84274C2.59326 6.10834 3.18976 5.51185 3.92415 5.51185C4.65855 5.51185 5.25504 6.10834 5.25504 6.84274V7.27889C5.25504 7.65731 5.5597 7.96197 5.93813 7.96197C6.31655 7.96197 6.62121 7.65731 6.62121 7.27889V3.35677C6.62121 2.62237 7.2177 2.02588 7.9521 2.02588C8.68649 2.02588 9.28299 2.62237 9.28299 3.35677V10.0689C9.28299 10.8707 9.69027 11.6179 10.3701 12.0573L10.399 12.0765C11.1687 12.5736 12.1564 12.5736 12.9261 12.0765L12.9453 12.0637C13.6188 11.6275 14.0261 10.8803 14.0261 10.0786Z" fill="#FF6723"/>
<path d="M6.97396 18.3714C6.97396 19.4076 6.13401 20.2475 5.09788 20.2475C4.06175 20.2475 3.2218 19.4076 3.2218 18.3714C3.2218 17.3353 4.06175 16.4954 5.09788 16.4954C6.13401 16.4954 6.97396 17.3353 6.97396 18.3714ZM29 20.7539C29 21.1681 28.6642 21.5039 28.25 21.5039C27.8358 21.5039 27.5 21.1681 27.5 20.7539C27.5 20.3397 27.8358 20.0039 28.25 20.0039C28.6642 20.0039 29 20.3397 29 20.7539ZM28 23.5C28 24.3284 27.3284 25 26.5 25C25.6716 25 25 24.3284 25 23.5C25 22.6716 25.6716 22 26.5 22C27.3284 22 28 22.6716 28 23.5ZM29.5 24C29.7761 24 30 23.7761 30 23.5C30 23.2239 29.7761 23 29.5 23C29.2239 23 29 23.2239 29 23.5C29 23.7761 29.2239 24 29.5 24ZM6.13057 23.0119C6.5521 23.0119 6.89382 22.6701 6.89382 22.2486C6.89382 21.8271 6.5521 21.4854 6.13057 21.4854C5.70903 21.4854 5.36731 21.8271 5.36731 22.2486C5.36731 22.6701 5.70903 23.0119 6.13057 23.0119ZM4.3475 23.2143C4.3475 23.8625 3.82199 24.388 3.17375 24.388C2.52551 24.388 2 23.8625 2 23.2143C2 22.566 2.52551 22.0405 3.17375 22.0405C3.82199 22.0405 4.3475 22.566 4.3475 23.2143Z" fill="#00A6ED"/>
<path d="M5 29.272L6.35975 27.6525C7.23205 26.6134 8.52125 26.0105 9.881 26.0105H13.9203C15.0844 26.0105 16.2068 26.4531 17.0567 27.2484L17.0984 27.2901C17.5954 27.7551 18.2529 28.0148 18.9327 28.0148H20.3214C20.998 28.0148 21.6394 27.7038 22.0563 27.1714C22.454 26.6679 23.0569 26.3729 23.6983 26.3729C24.3236 26.3729 24.9137 26.6519 25.3114 27.1329L27.0784 29.2752C27.3221 29.5702 27.1105 30.0128 26.7289 30.0128H5.34636C4.96152 30.0128 4.75307 29.567 5 29.272Z" fill="#9B9B9B"/>
</svg>

<svg xmlns="http://www.w3.org/2000/svg" width="32" height="32" fill="none"><path fill="#FF6723" d="M27.48 9.135a1.29 1.29 0 0 0-1.29 1.29v2.921a.649.649 0 1 1-1.299 0V3.29a1.29 1.29 0 0 0-2.578 0V9.27a.35.35 0 0 1-.568.273l-.292-.24a1.287 1.287 0 0 0-1.811.201 1.287 1.287 0 0 0 .202 1.812l2.04 1.639c.272.218.429.545.429.895v4.807c0 .532-.244 1.036-.657 1.37l-2.55 2.039a2.164 2.164 0 0 0-.811 1.69v6.167h2.578V24.42c0-.295.135-.571.362-.757l2.999-2.399c.417-.333.657-.837.657-1.37v-1.346c0-.35.158-.677.43-.895l2.902-2.322c.344-.275.546-.692.546-1.132v-3.774a1.29 1.29 0 0 0-1.29-1.29Zm-7.845 4.314c-.699 0-1.263.564-1.263 1.264v2.337a.8.8 0 0 1-1.6 0v-.327c0-.699-.565-1.263-1.264-1.263-.7 0-1.264.564-1.264 1.263v12.982h2.527v-6.244c0-1.222.626-2.36 1.658-3.014l1.251-.796a2.622 2.622 0 0 0 1.219-2.216v-2.722c0-.7-.565-1.264-1.264-1.264Zm-5.609-3.37v-.744a1.332 1.332 0 0 1 2.662.003v1.437c0 1.27-.645 2.456-1.713 3.146l-1.212.782a1.69 1.69 0 0 0-.776 1.424v13.886h-2.662v-6.776a.761.761 0 0 0-.295-.603L8.058 21.11a1.332 1.332 0 0 1 1.63-2.103l.185.144a.28.28 0 0 0 .452-.221v-2.81c0-.574-.292-1.112-.776-1.423l-1.667-1.078a2.758 2.758 0 0 1-1.258-2.312.687.687 0 0 0-.686-.687H4.117a1.523 1.523 0 0 1-1.524-1.523V6.843a1.332 1.332 0 0 1 2.662 0v.436c0 .378.305.683.683.683a.682.682 0 0 0 .683-.683V3.357a1.332 1.332 0 0 1 2.662 0v6.712c0 .802.407 1.549 1.087 1.988l.029.02c.77.497 1.757.497 2.527 0l.02-.013a2.366 2.366 0 0 0 1.08-1.985Z"/><path fill="#00A6ED" d="M6.974 18.371a1.876 1.876 0 1 1-3.752 0 1.876 1.876 0 0 1 3.752 0ZM29 20.754a.75.75 0 1 1-1.5 0 .75.75 0 0 1 1.5 0ZM28 23.5a1.5 1.5 0 1 1-3 0 1.5 1.5 0 0 1 3 0Zm1.5.5a.5.5 0 1 0 0-1 .5.5 0 0 0 0 1Zm-23.37-.988a.763.763 0 1 0 0-1.527.763.763 0 0 0 0 1.527Zm-1.782.202a1.174 1.174 0 1 1-2.348 0 1.174 1.174 0 0 1 2.348 0Z"/><path fill="#9B9B9B" d="m5 29.272 1.36-1.62A4.6 4.6 0 0 1 9.88 26.01h4.04c1.163 0 2.286.443 3.136 1.238l.041.042a2.689 2.689 0 0 0 1.835.725h1.388c.677 0 1.318-.311 1.735-.844a2.091 2.091 0 0 1 3.255-.038l1.767 2.142a.45.45 0 0 1-.35.738H5.347A.45.45 0 0 1 5 29.272Z"/></svg>
